svg/Interface/close-circle.svg

<svg xmlns="http://www.w3.org/2000/svg" width="24" height="24" viewBox="0 0 24 24">
    <g fill="none" stroke="currentColor" stroke-width="2" stroke-linecap="round">
        <path d="M12 3C16.9706 3 21 7.02944 21 12C21 16.9706 16.9706 21 12 21C7.02944 21 3 16.9706 3 12C3 7.02944 7.02944 3 12 3Z" stroke-dasharray="60" stroke-dashoffset="60">
            <animate attributeName="stroke-dashoffset" values="60;0" dur="0.5s" fill="freeze" />
        </path>
        <path d="M12 12L16 16M12 12L8 8M12 12L8 16M12 12L16 8" stroke-dasharray="8" stroke-dashoffset="8">
            <animate attributeName="stroke-dashoffset" values="8;0" begin="0.6s" dur="0.2s" fill="freeze" />
        </path>
    </g>
</svg>

<svg xmlns="http://www.w3.org/2000/svg" width="24" height="24" viewBox="0 0 24 24">
	<g fill="none" stroke="currentColor" stroke-width="2" stroke-linecap="round" stroke-linejoin="round">
		<path d="M12 3c4.97 0 9 4.03 9 9c0 4.97 -4.03 9 -9 9c-4.97 0 -9 -4.03 -9 -9c0 -4.97 4.03 -9 9 -9Z" stroke-dasharray="64" stroke-dashoffset="64">
			<animate attributeName="stroke-dashoffset" values="64;0" dur="0.6s" fill="freeze" />
		</path>
		<path d="M12 12l4 4M12 12l-4 -4M12 12l-4 4M12 12l4 -4" stroke-dasharray="8" stroke-dashoffset="8">
			<animate attributeName="stroke-dashoffset" values="8;0" begin="0.6s" dur="0.2s" fill="freeze" />
		</path>
	</g>
</svg>
